dist/img/svg/lock-outline.svg

<svg fill="#666" xmlns="http://www.w3.org/2000/svg" viewBox="0 0 24 24"><path d="M12 17a2 2 0 01-2-2c0-1.11.89-2 2-2a2 2 0 012 2 2 2 0 01-2 2m6 3V10H6v10h12m0-12a2 2 0 012 2v10a2 2 0 01-2 2H6a2 2 0 01-2-2V10c0-1.11.89-2 2-2h1V6a5 5 0 015-5 5 5 0 015 5v2h1m-6-5a3 3 0 00-3 3v2h6V6a3 3 0 00-3-3z"/></svg>

<svg fill="#666" xmlns="http://www.w3.org/2000/svg" viewBox="0 0 24 24"><path d="M12,17C10.89,17 10,16.1 10,15C10,13.89 10.89,13 12,13A2,2 0 0,1 14,15A2,2 0 0,1 12,17M18,20V10H6V20H18M18,8A2,2 0 0,1 20,10V20A2,2 0 0,1 18,22H6C4.89,22 4,21.1 4,20V10C4,8.89 4.89,8 6,8H7V6A5,5 0 0,1 12,1A5,5 0 0,1 17,6V8H18M12,3A3,3 0 0,0 9,6V8H15V6A3,3 0 0,0 12,3Z" /></svg>
